!!!OTL: Zur Unzeit (39), S. 128f
!!!id: T0166
**kern
*clefG2
*k[f#c#]
*D:
{8a
=1
8a
8a
8a
16a
16a
=2
8b
8a
8a}
=3
{8dd
=4
8a
8a
8a
8g
=5
8g
8f#
8f#}
8r
=6
{8f#
8e
8e
8r
=7
8a
8b
8a}
=8
{8d
=9
8d
8f#
8a
8c#
=10
4e
8d}
==
*-
!!!minrhy: 16
!!!meters: 2/4 ]  ZZ[4
!!!cut: Zur Unzeit (39), S. 128f
!!!reg: Luxemburg
!!!trd: Singendes Volk, Esch-Alzette 1937 posth.
!!!rhy1: X_  X_X_X_XX  X_X_X_
!!!rhy2: X_  X_X_X_X_  X_X_X_0_
!!!key: T0166  16  D 2/4 ]  ZZ[4
!!!mod: HEPTATONIK IONISCH]  AMBITUS[9b
!!!kad: 5351
!!!akz: 56_54_35_12_
!!!fot: 'a__b__c__d__
!!!for: 'a__b__c__d__
!!!fok: '-__\__/__^__
!! PHRAS[VORWIEGEND AUFTAKTIG]
!!!fkt: Liebeslieder
!!!bem: Heffingen, hhh Nikolaus Ewen, 29.8.1934
!! THILL, Mathias:
!! PR[53] 2K[0] 2G[4] 3K[5] 3G[4] 4A[2] 4Ü[0] 5A[4] 6K[0] 6G[0]
!! 7K[0] 7G[0] 8A[0] MEHR[0] SI[18] ABS[55] SR[4] SP[15]
!! ST[15] 2k[7] 2g[18] 3k[2] 3g[2] 4d[0] 4ü[0] 5d[0] 6k[0] 6g[0]
!! 7k[0] 7g[0] 8d[0] mehr[0] si[29] dm[-11] sr[25] sp[4]
!! 1F[11] 2F[75] 3F[5] 4F[0] LF[0] 2P[7] 3P[2] 4P[0] TRI[0] DF[5] AB[56]
!! TF[0] U3K[0] U3[0] U4[0] U4Ü[0] U5[5] U6K[0] U6[2] U7K[0] U7[2]
!! N1[18] N2K[0] N2[14] N3K[0] N3[29] N4[11] N4Ü[0] N5[18] N6K[0] N6[2]
!!!n7k: 0] N7[0] O1[0] O2K[0] O2[0] O3K[0] O3[0] HÖ[0
